src/32x32/places/folder-gruvbox-original-purple-gnome.svg

<?xml version="1.0" encoding="UTF-8"?>
<svg width="32" height="32" version="1" xmlns="http://www.w3.org/2000/svg">
 <rect x="2" y="11" width="28" height="18" rx="1.4" ry="1.4" opacity=".2"/>
 <path d="m2 22.6c0 0.776 0.6244 1.4 1.4 1.4h25.2c0.776 0 1.4-0.624 1.4-1.4v-15.2c0-0.7756-0.624-1.4-1.4-1.4h-12.6c-2.1 0-2.8-3-4.9-3h-7.7c-0.7756 0-1.4 0.6244-1.4 1.4" fill="#8f3f71"/>
 <rect x="2" y="9" width="28" height="18" rx="1.4" ry="1.4" opacity=".2"/>
 <rect x="4" y="8" width="24" height="11" rx="1.4" ry="1.4" fill="#E1D4B6"/>
 <rect x="2" y="10" width="28" height="18" rx="1.4" ry="1.4" fill="#d3869b"/>
 <path d="m3.4004 3c-0.7756 0-1.4004 0.6248-1.4004 1.4004v1c0-0.7756 0.6248-1.4004 1.4004-1.4004h7.6996c2.1 0 2.8 3 4.9 3h12.6c0.775 0 1.4 0.6248 1.4 1.4004v-1c0-0.7756-0.625-1.4004-1.4-1.4004h-12.6c-2.1 0-2.8-3-4.9-3z" fill="#E1D4B6" opacity=".1"/>
 <path d="m19.952 13c-2.539 0-3.015 3.858-1.586 3.858 1.428 0 4.126-3.858 1.586-3.858zm-3.911 0.594c-0.04-1e-3 -0.083 3e-3 -0.128 8e-3 -1.44 0.182-0.933 2.617-0.167 2.662 0.741 0.045 1.553-2.666 0.294-2.67zm-2.495 0.899c-0.088-6e-3 -0.185 0.011-0.294 0.055-1.156 0.475-0.175 2.436 0.472 2.304 0.588-0.12 0.672-2.304-0.178-2.359zm-1.887 1.602c-0.101-2e-3 -0.209 0.032-0.325 0.119-0.926 0.691 0.311 2.36 0.856 2.101 0.476-0.227 0.172-2.194-0.532-2.219zm5.467 1.594c-2.006-0.035-4.652 0.983-5.103 3.029-0.489 2.212 2.012 5.282 4.62 5.282 1.284 0 2.764-1.173 3.041-2.658 0.212-1.133-2.489-0.679-2.392 0.07 0.116 0.899-0.651 1.343-1.403 0.764-2.394-1.844 3.963-2.764 3.543-5.283-0.13-0.784-1.103-1.183-2.306-1.204z" fill="#393534"/>
</svg>

<svg xmlns="http://www.w3.org/2000/svg" width="32" height="32" version="1">
 <rect style="opacity:0.2" width="28" height="18" x="2" y="11" rx="1.4" ry="1.4"/>
 <path style="fill:#8f3f71" d="M 2,22.6 C 2,23.376 2.6244,24 3.4,24 H 28.6 C 29.376,24 30,23.376 30,22.6 V 7.4 C 30,6.6244 29.376,6 28.6,6 H 16 C 13.9,6 13.2,3 11.1,3 H 3.4 C 2.6244,3 2,3.6244 2,4.4"/>
 <rect style="opacity:0.2" width="28" height="18" x="2" y="9" rx="1.4" ry="1.4"/>
 <rect style="fill:#E1D4B6" width="24" height="11" x="4" y="8" rx="1.4" ry="1.4"/>
 <rect style="fill:#d3869b" width="28" height="18" x="2" y="10" rx="1.4" ry="1.4"/>
 <path style="opacity:0.1;fill:#E1D4B6" d="M 3.4004,3 C 2.6248,3 2,3.6248 2,4.4004 V 5.4004 C 2,4.6248 2.6248,4 3.4004,4 H 11.1 C 13.2,4 13.9,7 16,7 H 28.6 C 29.375,7 30,7.6248 30,8.4004 V 7.4004 C 30,6.6248 29.375,6 28.6,6 H 16 C 13.9,6 13.2,3 11.1,3 Z"/>
 <path style="fill:#393534" d="m 19.952149,13 c -2.539,0 -3.015,3.858 -1.586,3.858 1.428,0 4.126,-3.858 1.586,-3.858 z m -3.911,0.594 c -0.04,-10e-4 -0.083,0.003 -0.128,0.008 -1.44,0.182 -0.933,2.617 -0.167,2.662 0.741,0.045 1.553,-2.666 0.294,-2.67 z m -2.495,0.899 c -0.088,-0.006 -0.185,0.011 -0.294,0.055 -1.156,0.475 -0.175,2.436 0.472,2.304 0.588,-0.12 0.672,-2.304 -0.178,-2.359 z m -1.887,1.602 c -0.101,-0.002 -0.209,0.032 -0.325,0.119 -0.926,0.691 0.311,2.36 0.856,2.101 0.476,-0.227 0.172,-2.194 -0.532,-2.219 z m 5.467,1.594 c -2.006,-0.035 -4.652,0.983 -5.103,3.029 -0.489,2.212 2.012,5.282 4.62,5.282 1.284,0 2.764,-1.173 3.041,-2.658 0.212,-1.133 -2.489,-0.679 -2.392,0.07 0.116,0.899 -0.651,1.343 -1.403,0.764 -2.394,-1.844 3.963,-2.764 3.543,-5.283 -0.13,-0.784 -1.103,-1.183 -2.306,-1.204 z"/>
</svg>
